public/media/theme/medal5.svg

<?xml version="1.0" encoding="UTF-8"?>
<svg width="50px" height="50px" viewBox="0 0 50 50" version="1.1" xmlns="http://www.w3.org/2000/svg" xmlns:xlink="http://www.w3.org/1999/xlink">
    <!-- Generator: Sketch 48.2 (47327) - http://www.bohemiancoding.com/sketch -->
    <title>Medal</title>
    <desc>Created with Sketch.</desc>
    <defs>
        <circle id="path-1" cx="25" cy="25" r="25"></circle>
    </defs>
    <g id="P9---Achievements" stroke="none" stroke-width="1" fill="none" fill-rule="evenodd" transform="translate(-505.000000, -725.000000)">
        <g id="Medal-#5" transform="translate(505.000000, 725.000000)">
            <g id="Medal">
                <g id="Base">
                    <use fill="#F9EADD" fill-rule="evenodd" xlink:href="#path-1"></use>
                    <circle stroke="#E49046" stroke-width="3" cx="25" cy="25" r="23.5"></circle>
                </g>
                <path d="M30.9337417,24.4795033 C29.1647417,23.0145033 28.2897417,23.0275033 29.0877417,24.6015033 C30.3617417,27.1065033 27.6887417,29.0615033 27.6887417,29.0615033 C27.6887417,29.0615033 25.3377417,27.6555033 26.6087417,24.9065033 C27.8787417,22.1575033 29.6607417,17.6385033 27.1807417,15.0115033 C24.7017417,12.3855033 23.4917417,12.9945033 23.8757417,13.2395033 C23.8757417,13.2395033 25.3997417,14.7675033 25.2747417,16.5985033 C25.1467417,18.4315033 21.3917417,21.3645033 18.6587417,25.0295033 C15.9227417,28.6945033 16.6237417,32.1145033 20.3747417,34.2525033 C24.1297417,36.3905033 25.1467417,37.0005033 25.1467417,37.0005033 C25.1467417,37.0005033 28.8657417,35.0015033 31.5067417,32.5415033 C34.1887417,30.0405033 32.7777417,26.0045033 30.9337417,24.4795033" id="Icon" fill="#E49046"></path>
            </g>
        </g>
    </g>
</svg>

<svg width="50" height="50" viewBox="0 0 50 50" xmlns="http://www.w3.org/2000/svg" xmlns:xlink="http://www.w3.org/1999/xlink"><title>Medal</title><defs><circle id="a" cx="25" cy="25" r="25"/></defs><g fill="none" fill-rule="evenodd"><use fill="#F9EADD" xlink:href="#a"/><circle stroke="#E49046" stroke-width="3" cx="25" cy="25" r="23.5"/><path d="M30.934 24.48c-1.77-1.465-2.644-1.452-1.846.122 1.274 2.505-1.4 4.46-1.4 4.46s-2.35-1.406-1.08-4.155c1.27-2.75 3.053-7.268.573-9.895-2.48-2.626-3.69-2.017-3.305-1.772 0 0 1.524 1.528 1.399 3.359-.128 1.833-3.883 4.766-6.616 8.43-2.736 3.666-2.035 7.086 1.716 9.224C24.13 36.39 25.147 37 25.147 37s3.719-2 6.36-4.46c2.682-2.5 1.27-6.536-.573-8.061" fill="#E49046"/></g></svg>
